images/call-reverted.svg

<svg width="384" height="384" fill="none" xmlns="http://www.w3.org/2000/svg"><g clip-path="url(#clip0_4192_26839)"><path d="M30.812 252.052c23.51 0 46.594-3.677 68.469-10.906 10.719-3.656 23.896-.302 30.438 6.417l43.177 32.594c50.073-26.729 80.917-57.563 107.281-107.26l-31.635-42.052c-8.219-8.208-11.167-20.198-7.635-31.448 7.26-21.99 10.948-45.063 10.948-68.583C251.854 13.823 265.677 0 282.667 0h70.52C370.177 0 384 13.823 384 30.813 384 225.563 225.562 384 30.812 384c-16.99 0-30.813-13.823-30.813-30.813v-70.323c.001-16.989 13.824-30.812 30.813-30.812z" fill="#000"/></g><defs><clipPath id="clip0_4192_26839"><path fill="#fff" transform="matrix(-1 0 0 1 384 0)" d="M0 0h384v384H0z"/></clipPath></defs></svg>

<svg width="384" height="384" viewBox="0 0 384 384" fill="none" xmlns="http://www.w3.org/2000/svg">
<g clip-path="url(#clip0_4192_26839)">
<path d="M30.812 252.052C54.322 252.052 77.406 248.375 99.281 241.146C110 237.49 123.177 240.844 129.719 247.563L172.896 280.157C222.969 253.428 253.813 222.594 280.177 172.897L248.542 130.845C240.323 122.637 237.375 110.647 240.907 99.397C248.167 77.407 251.855 54.334 251.855 30.814C251.854 13.823 265.677 0 282.667 0H353.187C370.177 0 384 13.823 384 30.813C384 225.563 225.562 384 30.812 384C13.822 384 -0.00100708 370.177 -0.00100708 353.187V282.864C-7.08003e-06 265.875 13.823 252.052 30.812 252.052Z" fill="black"/>
</g>
<defs>
<clipPath id="clip0_4192_26839">
<rect width="384" height="384" fill="white" transform="matrix(-1 0 0 1 384 0)"/>
</clipPath>
</defs>
</svg>
